svg/icon/nebl.svg

<svg xmlns="http://www.w3.org/2000/svg" xmlns:xlink="http://www.w3.org/1999/xlink" width="32" height="32" viewBox="0 0 32 32"><defs><linearGradient id="nebl-c" x1="50%" x2="50%" y1="0%" y2="100%"><stop offset="0%" stop-color="#FFF" stop-opacity=".5"/><stop offset="100%" stop-opacity=".5"/></linearGradient><circle id="nebl-b" cx="16" cy="15" r="15"/><filter id="nebl-a" width="111.7%" height="111.7%" x="-5.8%" y="-4.2%" filterUnits="objectBoundingBox"><feOffset dy=".5" in="SourceAlpha" result="shadowOffsetOuter1"/><feGaussianBlur in="shadowOffsetOuter1" result="shadowBlurOuter1" stdDeviation=".5"/><feComposite in="shadowBlurOuter1" in2="SourceAlpha" operator="out" result="shadowBlurOuter1"/><feColorMatrix in="shadowBlurOuter1" values="0 0 0 0 0 0 0 0 0 0 0 0 0 0 0 0 0 0 0.199473505 0"/></filter><path id="nebl-e" d="M20.3594663,12.6609039 L20.3594663,17.3958718 L20.3595648,17.4429231 L16.0527668,19.8104842 L16.0527668,15.028419 L20.3594663,12.6609039 Z M25.5,11.4342759 L25.5,18.5654572 C25.4992149,19.0720427 25.3597014,19.568419 25.0970622,19.9990731 C24.836542,20.4284755 24.4597423,20.7939712 23.9929948,21.0505114 L20.7809119,22.8163077 L20.7809119,18.1087841 L21.1868031,17.8855972 L21.1868031,12.2074305 L25.1213782,10.0444575 C25.3650311,10.4631329 25.5,10.9394049 25.5,11.4342759 Z M8.00680829,21.0506114 C7.55662905,20.8034327 7.19091144,20.4534658 6.93200078,20.0435045 C6.65455959,19.6044962 6.5,19.0955261 6.5,18.5655572 L6.5,15.0339646 L6.5,14 L10.9235544,17.4546225 L10.9235544,17.6473111 L10.9313316,17.8449995 L11.2746114,18.0480876 L15.6906914,20.4758951 L16.0551295,20.6762333 L16.0551295,24.9993795 C15.5106686,25.0102368 14.9726351,24.8784425 14.4928964,24.616702 L8.00680829,21.0506114 Z M7.82261658,9.05971529 L12.5,6.5 L15.6800003,9.57999992 L10.9235544,12.2027308 L10.9235544,12.6021073 L6.50984456,15.0282649 L6.5,11.4342759 C6.50083338,10.9266454 6.64094639,10.4292979 6.9046114,9.9980602 C7.13680726,9.61878114 7.45067531,9.29793404 7.82261658,9.05971529 Z M23.9929948,8.94902179 C24.4752798,9.21440621 24.8605959,9.5960838 25.1213782,10.0443575 L21.1868031,12.2073305 L21.1868031,12.1710326 L20.7808135,11.9479457 L16.4472383,9.56558559 L20.7808135,7.18332544 L23.9929948,8.94902179 Z M6.50994301,15.0283649 L10.9235544,12.6022073 L10.9235544,17.4545225 L6.50994301,15.0283649 Z M16.055228,9.38029647 L16.055228,5.00055359 C16.5621883,5.00806892 17.0599385,5.13928232 17.506513,5.38313113 L20.7805181,7.18302546 L16.4470415,9.5653856 L16.055228,9.38029647 Z M15.6907824,9.5807847 L11.2825855,7.15762695 L14.685456,5.28693677 C15.1154272,5.08950637 15.5832474,4.99168346 16.0550311,5.00055359 L16.0550311,9.38079644 L15.6907824,9.5807847 Z M16.0827927,20.6914324 L16.4472383,20.4914442 L20.7291295,22.845206 L17.5068083,24.616502 C17.0601459,24.8604357 16.5623037,24.9917496 16.055228,24.9993795 L16.055228,20.6763333 L16.0827927,20.6914324 Z M20.7808135,18.1088841 L20.7808135,22.8163077 L20.7291295,22.844806 L16.4472383,20.4910442 L20.7808135,18.1088841 Z"/><filter id="nebl-d" width="118.4%" height="117.5%" x="-9.2%" y="-6.2%" filterUnits="objectBoundingBox"><feOffset dy=".5" in="SourceAlpha" result="shadowOffsetOuter1"/><feGaussianBlur in="shadowOffsetOuter1" result="shadowBlurOuter1" stdDeviation=".5"/><feColorMatrix in="shadowBlurOuter1" values="0 0 0 0 0 0 0 0 0 0 0 0 0 0 0 0 0 0 0.204257246 0"/></filter></defs><g fill="none" fill-rule="evenodd"><use fill="#000" filter="url(#nebl-a)" xlink:href="#nebl-b"/><use fill="#50479E" xlink:href="#nebl-b"/><use fill="url(#nebl-c)" style="mix-blend-mode:soft-light" xlink:href="#nebl-b"/><circle cx="16" cy="15" r="14.5" stroke="#000" stroke-opacity=".097"/><g fill-rule="nonzero"><use fill="#000" filter="url(#nebl-d)" xlink:href="#nebl-e"/><use fill="#FFF" fill-rule="evenodd" xlink:href="#nebl-e"/></g></g></svg>

<svg xmlns="http://www.w3.org/2000/svg" xmlns:xlink="http://www.w3.org/1999/xlink" width="32" height="32" viewBox="0 0 32 32"><defs><linearGradient id="c" x1="50%" x2="50%" y1="0%" y2="100%"><stop offset="0%" stop-color="#FFF" stop-opacity=".5"/><stop offset="100%" stop-opacity=".5"/></linearGradient><circle id="b" cx="16" cy="15" r="15"/><filter id="a" width="111.7%" height="111.7%" x="-5.8%" y="-4.2%" filterUnits="objectBoundingBox"><feOffset dy=".5" in="SourceAlpha" result="shadowOffsetOuter1"/><feGaussianBlur in="shadowOffsetOuter1" result="shadowBlurOuter1" stdDeviation=".5"/><feComposite in="shadowBlurOuter1" in2="SourceAlpha" operator="out" result="shadowBlurOuter1"/><feColorMatrix in="shadowBlurOuter1" values="0 0 0 0 0 0 0 0 0 0 0 0 0 0 0 0 0 0 0.199473505 0"/></filter><path id="e" d="M20.36 12.66v4.784l-4.307 2.367v-4.782l4.306-2.367zm5.14-1.226v7.131c0 .507-.14 1.003-.403 1.434-.26.43-.637.795-1.104 1.052l-3.212 1.765V18.11l.406-.223v-5.679l3.934-2.163c.244.42.379.895.379 1.39zM8.007 21.051a2.944 2.944 0 0 1-1.075-1.007 2.763 2.763 0 0 1-.432-1.478V14l4.424 3.455v.192l.007.198.344.203 4.416 2.428.364.2V25a3.13 3.13 0 0 1-1.562-.382L8.007 21.05zM7.823 9.06L12.5 6.5l3.18 3.08-4.756 2.623v.4L6.51 15.027l-.01-3.594c0-.507.14-1.005.405-1.436.232-.38.546-.7.918-.938zm16.17-.111a2.94 2.94 0 0 1 1.128 1.095l-3.934 2.163v-.036l-.406-.223-4.334-2.382 4.334-2.383 3.212 1.766zM6.51 15.029l4.414-2.427v4.853L6.51 15.028zm9.545-5.649V5a3.124 3.124 0 0 1 1.452.383l3.274 1.8-4.334 2.382-.392-.185zm-.364.2l-4.408-2.422 3.402-1.871A3.14 3.14 0 0 1 16.055 5v4.38l-.364.2zm.392 11.111l.364-.2 4.282 2.354-3.222 1.772a3.126 3.126 0 0 1-1.452.382v-4.323l.028.015zm4.698-2.582v4.707l-.052.029-4.282-2.354 4.334-2.382z"/><filter id="d" width="118.4%" height="117.5%" x="-9.2%" y="-6.2%" filterUnits="objectBoundingBox"><feOffset dy=".5" in="SourceAlpha" result="shadowOffsetOuter1"/><feGaussianBlur in="shadowOffsetOuter1" result="shadowBlurOuter1" stdDeviation=".5"/><feColorMatrix in="shadowBlurOuter1" values="0 0 0 0 0 0 0 0 0 0 0 0 0 0 0 0 0 0 0.204257246 0"/></filter></defs><g fill="none" fill-rule="evenodd"><use fill="#000" filter="url(#a)" xlink:href="#b"/><use fill="#50479E" xlink:href="#b"/><use fill="url(#c)" style="mix-blend-mode:soft-light" xlink:href="#b"/><circle cx="16" cy="15" r="14.5" stroke="#000" stroke-opacity=".097"/><g fill-rule="nonzero"><use fill="#000" filter="url(#d)" xlink:href="#e"/><use fill="#FFF" fill-rule="evenodd" xlink:href="#e"/></g></g></svg>
